X:1
T:James Walch
T:St. George's Bolton
%%score { ( 1 2 ) | ( 3 4 ) }
L:1/8
Q:1/4=184
M:4/2
K:Eb
V:1 treble 
V:2 treble 
V:3 bass 
V:4 bass 
V:1
"^Presto" A4 | G4 F4 B4 D4 | F8 E4 B4 | c4 e4 d4 c4 | B12 G4 | G4 F4 A4 D4 | F8 E4 G4 | %7
 F4 B4 B4 =A4 | B12 B4 | B6 B2 c4 d4 | e8 B4 B4 | c6 _d2 c4 G4 | A12 c4 | B6 B2 e4 e4 | e8 d4 c4 | %15
 B4 E4 F6 G2 | E12 | E8 E8 |] %18
V:2
 E4 | D4 D4 D4 B,4 | B,8 B,4 E4 | E4 E4 E4 E4 | E12 E4 | D4 D4 D4 D4 | C8 C4 C4 | %7
 F4 D4 G4 (F2 E2) | D12 F4 | F6 F2 F4 F4 | E8 E4 E4 | =E6 E2 F4 E4 | F12 D4 | E4 E4 G4 G4 | %14
 A8 F4 ^F4 | G4 E4 E4 D4 | E12 | C8 B,8 |] %18
V:3
 B,4 | B,4 A,4 F,4 A,4 | A,8 G,4 G,4 | A,4 C4 B,4 A,4 | G,12 B,4 | B,4 A,4 F,4 A,4 | A,12 G,4 | %7
 =A,4 B,4 B,4 C4 | B,12 D4 | D6 D2 C4 B,4 | B,8 G,4 G,4 | G,6 G,2 C4 C4 | C12 A,4 | %13
 B,4 G,4 B,4 _D4 | C8 D4 E4 | E4 G,4 A,4 A,4 | G,12 | A,8 G,8 |] %18
V:4
 E,4 | B,,4 B,,4 B,,4 B,,4 | E,8 E,4 E,4 | A,4 A,4 A,,4 A,,4 | E,12 E,4 | B,,4 B,,4 B,,4 B,,4 | %6
 C,8 C,4 E,4 | D,4 G,4 E,4 F,4 | B,,12 B,4 | A,6 A,2 A,4 A,4 | G,8 E,4 _D,4 | C,6 B,,2 A,,4 C,4 | %12
 F,12 F,4 | G,4 E,4 E,4 E,4 | A,8 A,4 =A,4 | B,4 B,,4 B,,4 B,,4 | E,12 | A,,8 E,8 |] %18

